app/build/assets/images/passenger.svg

<svg xmlns="http://www.w3.org/2000/svg" viewBox="0 0 36 36"><path fill="#F7DECE" d="M13.052 22.569c-.236.161-.512-.02-.646-.131-.379-.313-.763-1.144-.611-2.142.154-1.008.199-2.185.673-4.137.055-.228-.069-2.776.212-4.528.076-.473.958-1.066 1.495-1.057.536.008.263.944.274 1.101.12 1.682-.348 4.279-.398 4.632-.277 1.956-1.033 2.835-.776 4.13.135.679.154 1.293-.242 1.345.005.366.106.728.019.787zm9.896 0c.236.161.512-.02.646-.131.379-.313.763-1.144.611-2.142-.154-1.008-.199-2.185-.673-4.137-.055-.228.069-2.776-.212-4.528-.076-.473-.958-1.066-1.495-1.057-.536.008-.263.944-.274 1.101-.12 1.682.348 4.279.398 4.632.277 1.956 1.033 2.835.776 4.13-.135.679-.154 1.293.242 1.345-.005.366-.106.728-.019.787z"/><path fill="#4289C1" d="M21.57 26.733c.02-3.063.014-6.5.014-6.5h-7.197s.033 3.747.119 6.46c.067 2.14.382 6.193.096 8.349-.064.479 2.782.937 2.742-.125-.075-1.969.255-6.322.316-7.309.034-.547.241-2.326.331-3.659.011-.018.284-.018.295 0 .09 1.333.297 3.112.331 3.659.062.987.392 5.34.316 7.309-.041 1.062 2.805.604 2.742.125-.286-2.157-.107-7.96-.105-8.309z"/><path fill="#FA743E" d="M22.366 9.472C21.661 8.623 18 8.023 18 8.023s-3.693.6-4.398 1.449c-.856 1.031-1.302 2.773-1.302 2.773l1.783.318s.449 1.612.449 3.148-.398 5.307-.398 5.307h7.734s-.43-3.84-.43-5.306.481-3.149.481-3.149l1.751-.318c-.002 0-.449-1.743-1.304-2.773z"/><path fill="#292F33" d="M19.242.83c-.59-.191-1.98-.139-2.327.313-.903.017-1.962.834-2.101 1.91-.138 1.066.169 1.561.278 2.362.123.908.634 1.198 1.042 1.32.587.776 1.211.742 2.259.742 2.046 0 3.021-1.369 3.107-3.695.052-1.406-.774-2.472-2.258-2.952z"/><path fill="#F7DECE" d="M17.009 6.893v1.754c0 .484.488.877 1.091.877s1.091-.393 1.091-.877V6.893h-2.182z"/><path fill="#EEC2AD" d="M17.009 7.981c.396.251 1.201.557 2.182-.03V6.893h-2.182v1.088z"/><path fill="#F7DECE" d="M20.412 3.882c-.198-.274-.452-.495-1.007-.573.208.096.408.425.434.608.026.182.052.33-.113.148-.661-.731-1.381-.443-2.094-.889-.498-.312-.65-.657-.65-.657s-.061.46-.816.929c-.219.136-.48.439-.625.886-.104.321-.072.608-.072 1.098 0 1.429 1.178 2.631 2.631 2.631s2.631-1.212 2.631-2.631c0-.89-.093-1.238-.319-1.55z"/><path fill="#662113" d="M16.931 5.138c-.161 0-.292-.131-.292-.292v-.292c0-.161.131-.292.292-.292.161 0 .292.131.292.292v.292c0 .162-.131.292-.292.292zm2.338 0c-.161 0-.292-.131-.292-.292v-.292c0-.161.131-.292.292-.292.161 0 .292.131.292.292v.292c.001.162-.13.292-.292.292z"/><path fill="#C1694F" d="M18.573 7.356h-.953c-.102 0-.186-.084-.186-.186s.084-.186.186-.186h.953c.102 0 .186.084.186.186s-.084.186-.186.186zm-.181-1.194h-.585c-.081 0-.146-.065-.146-.146 0-.081.065-.146.146-.146h.585c.081 0 .146.065.146.146.001.08-.065.146-.146.146z"/><path fill="#292F33" d="M13.884 35.907c-.546-.051-.187-.684.061-.897.276-.238.718-.441.94-.852.246-.455 1.433-.395 1.683-.023.447.664.645.179.775.488.207.494.049 1.284.049 1.284h-3.508zm8.476 0c.546-.051.187-.684-.061-.897-.276-.238-.718-.441-.94-.852-.246-.455-1.433-.395-1.683-.023-.447.664-.645.179-.775.488-.207.494-.049 1.284-.049 1.284h3.508z"/></svg>

<?xml version="1.0" encoding="UTF-8" standalone="no"?>
<!DOCTYPE svg PUBLIC "-//W3C//DTD SVG 1.1//EN" "http://www.w3.org/Graphics/SVG/1.1/DTD/svg11.dtd">
<svg width="100%" height="100%" viewBox="0 0 40 40" version="1.1" xmlns="http://www.w3.org/2000/svg" xmlns:xlink="http://www.w3.org/1999/xlink" xml:space="preserve" xmlns:serif="http://www.serif.com/" style="fill-rule:evenodd;clip-rule:evenodd;stroke-linecap:round;stroke-linejoin:round;stroke-miterlimit:1.5;">
    <g transform="matrix(1.03347,0,0,1.03347,-1.64942,-1.33037)">
        <circle cx="20.948" cy="20.639" r="17.42" style="fill:rgb(235,235,235);stroke:white;stroke-width:3.34px;"/>
    </g>
    <g id="passenger" transform="matrix(0.694441,0,0,0.694441,20,20)">
        <g transform="matrix(1,0,0,1,-18,-18)">
            <path d="M13.052,22.569C12.816,22.73 12.54,22.549 12.406,22.438C12.027,22.125 11.643,21.294 11.795,20.296C11.949,19.288 11.994,18.111 12.468,16.159C12.523,15.931 12.399,13.383 12.68,11.631C12.756,11.158 13.638,10.565 14.175,10.574C14.711,10.582 14.438,11.518 14.449,11.675C14.569,13.357 14.101,15.954 14.051,16.307C13.774,18.263 13.018,19.142 13.275,20.437C13.41,21.116 13.429,21.73 13.033,21.782C13.038,22.148 13.139,22.51 13.052,22.569ZM22.948,22.569C23.184,22.73 23.46,22.549 23.594,22.438C23.973,22.125 24.357,21.294 24.205,20.296C24.051,19.288 24.006,18.111 23.532,16.159C23.477,15.931 23.601,13.383 23.32,11.631C23.244,11.158 22.362,10.565 21.825,10.574C21.289,10.582 21.562,11.518 21.551,11.675C21.431,13.357 21.899,15.954 21.949,16.307C22.226,18.263 22.982,19.142 22.725,20.437C22.59,21.116 22.571,21.73 22.967,21.782C22.962,22.148 22.861,22.51 22.948,22.569Z" style="fill:rgb(247,222,206);fill-rule:nonzero;"/>
            <path d="M21.57,26.733C21.59,23.67 21.584,20.233 21.584,20.233L14.387,20.233C14.387,20.233 14.42,23.98 14.506,26.693C14.573,28.833 14.888,32.886 14.602,35.042C14.538,35.521 17.384,35.979 17.344,34.917C17.269,32.948 17.599,28.595 17.66,27.608C17.694,27.061 17.901,25.282 17.991,23.949C18.002,23.931 18.275,23.931 18.286,23.949C18.376,25.282 18.583,27.061 18.617,27.608C18.679,28.595 19.009,32.948 18.933,34.917C18.892,35.979 21.738,35.521 21.675,35.042C21.389,32.885 21.568,27.082 21.57,26.733Z" style="fill:rgb(66,137,193);fill-rule:nonzero;"/>
            <path d="M22.366,9.472C21.661,8.623 18,8.023 18,8.023C18,8.023 14.307,8.623 13.602,9.472C12.746,10.503 12.3,12.245 12.3,12.245L14.083,12.563C14.083,12.563 14.532,14.175 14.532,15.711C14.532,17.247 14.134,21.018 14.134,21.018L21.868,21.018C21.868,21.018 21.438,17.178 21.438,15.712C21.438,14.246 21.919,12.563 21.919,12.563L23.67,12.245C23.668,12.245 23.221,10.502 22.366,9.472Z" style="fill:rgb(250,116,62);fill-rule:nonzero;"/>
            <path d="M19.242,0.83C18.652,0.639 17.262,0.691 16.915,1.143C16.012,1.16 14.953,1.977 14.814,3.053C14.676,4.119 14.983,4.614 15.092,5.415C15.215,6.323 15.726,6.613 16.134,6.735C16.721,7.511 17.345,7.477 18.393,7.477C20.439,7.477 21.414,6.108 21.5,3.782C21.552,2.376 20.726,1.31 19.242,0.83Z" style="fill:rgb(41,47,51);fill-rule:nonzero;"/>
            <path d="M17.009,6.893L17.009,8.647C17.009,9.131 17.497,9.524 18.1,9.524C18.703,9.524 19.191,9.131 19.191,8.647L19.191,6.893L17.009,6.893Z" style="fill:rgb(247,222,206);fill-rule:nonzero;"/>
            <path d="M17.009,7.981C17.405,8.232 18.21,8.538 19.191,7.951L19.191,6.893L17.009,6.893L17.009,7.981Z" style="fill:rgb(238,194,173);fill-rule:nonzero;"/>
            <path d="M20.412,3.882C20.214,3.608 19.96,3.387 19.405,3.309C19.613,3.405 19.813,3.734 19.839,3.917C19.865,4.099 19.891,4.247 19.726,4.065C19.065,3.334 18.345,3.622 17.632,3.176C17.134,2.864 16.982,2.519 16.982,2.519C16.982,2.519 16.921,2.979 16.166,3.448C15.947,3.584 15.686,3.887 15.541,4.334C15.437,4.655 15.469,4.942 15.469,5.432C15.469,6.861 16.647,8.063 18.1,8.063C19.553,8.063 20.731,6.851 20.731,5.432C20.731,4.542 20.638,4.194 20.412,3.882Z" style="fill:rgb(247,222,206);fill-rule:nonzero;"/>
            <path d="M16.931,5.138C16.77,5.138 16.639,5.007 16.639,4.846L16.639,4.554C16.639,4.393 16.77,4.262 16.931,4.262C17.092,4.262 17.223,4.393 17.223,4.554L17.223,4.846C17.223,5.008 17.092,5.138 16.931,5.138ZM19.269,5.138C19.108,5.138 18.977,5.007 18.977,4.846L18.977,4.554C18.977,4.393 19.108,4.262 19.269,4.262C19.43,4.262 19.561,4.393 19.561,4.554L19.561,4.846C19.562,5.008 19.431,5.138 19.269,5.138Z" style="fill:rgb(102,33,19);fill-rule:nonzero;"/>
            <path d="M18.573,7.356L17.62,7.356C17.518,7.356 17.434,7.272 17.434,7.17C17.434,7.068 17.518,6.984 17.62,6.984L18.573,6.984C18.675,6.984 18.759,7.068 18.759,7.17C18.759,7.272 18.675,7.356 18.573,7.356ZM18.392,6.162L17.807,6.162C17.726,6.162 17.661,6.097 17.661,6.016C17.661,5.935 17.726,5.87 17.807,5.87L18.392,5.87C18.473,5.87 18.538,5.935 18.538,6.016C18.539,6.096 18.473,6.162 18.392,6.162Z" style="fill:rgb(193,105,79);fill-rule:nonzero;"/>
            <path d="M13.884,35.907C13.338,35.856 13.697,35.223 13.945,35.01C14.221,34.772 14.663,34.569 14.885,34.158C15.131,33.703 16.318,33.763 16.568,34.135C17.015,34.799 17.213,34.314 17.343,34.623C17.55,35.117 17.392,35.907 17.392,35.907L13.884,35.907ZM22.36,35.907C22.906,35.856 22.547,35.223 22.299,35.01C22.023,34.772 21.581,34.569 21.359,34.158C21.113,33.703 19.926,33.763 19.676,34.135C19.229,34.799 19.031,34.314 18.901,34.623C18.694,35.117 18.852,35.907 18.852,35.907L22.36,35.907Z" style="fill:rgb(41,47,51);fill-rule:nonzero;"/>
        </g>
    </g>
</svg>
